X: 29049
T: Neil Gow's Lamentation For James Moray Esq. Of Abercairny
R: strathspey
M: 4/4
K: Gmajor
|:[B,/F/]<[A,/G/]|G,>B,D>G E<GD>G|A>B c/>B/A/<G/ E2- EF/G/|
G,>B,D>G E<G Dg/e/|d>B d/>c/B/<A/ G3:|
e|de/f/ g>d e>dg>B|c/B/c/a/ B/A/B/g/ A2- AF/G/|
G,>B,D>G E<G Dg/e/|d>B d/>c/B/<A/ G2- G>e|
de/f/ g>d e>dg>B|c/>B/c/<a/ B/>A/B/<g/ A2- A>B|
c/e/d/c/ B/d/c/B/ A/c/B/A/ G/B/A/G/|F/A/ (3G/F/E/ D/E/D/B,/ G,3||

